assets/images/social/facebook-icon.svg

<svg xmlns="http://www.w3.org/2000/svg" xmlns:xlink="http://www.w3.org/1999/xlink" viewBox="0,0,256,256" width="50px" height="50px" fill-rule="nonzero"><g fill="#ffffff" fill-rule="nonzero" stroke="none" stroke-width="1" stroke-linecap="butt" stroke-linejoin="miter" stroke-miterlimit="10" stroke-dasharray="" stroke-dashoffset="0" font-family="none" font-weight="none" font-size="none" text-anchor="none" style="mix-blend-mode: normal"><g transform="scale(5.12,5.12)"><path d="M9,4c-2.74952,0 -5,2.25048 -5,5v32c0,2.74952 2.25048,5 5,5h16.83203c0.10799,0.01785 0.21818,0.01785 0.32617,0h5.67383c0.10799,0.01785 0.21818,0.01785 0.32617,0h8.8418c2.74952,0 5,-2.25048 5,-5v-32c0,-2.74952 -2.25048,-5 -5,-5zM9,6h32c1.66848,0 3,1.33152 3,3v32c0,1.66848 -1.33152,3 -3,3h-8v-14h3.82031l1.40039,-7h-5.2207v-2c0,-0.55749 0.05305,-0.60107 0.24023,-0.72266c0.18718,-0.12159 0.76559,-0.27734 1.75977,-0.27734h3v-5.63086l-0.57031,-0.27149c0,0 -2.29704,-1.09766 -5.42969,-1.09766c-2.25,0 -4.09841,0.89645 -5.28125,2.375c-1.18284,1.47855 -1.71875,3.45833 -1.71875,5.625v2h-3v7h3v14h-16c-1.66848,0 -3,-1.33152 -3,-3v-32c0,-1.66848 1.33152,-3 3,-3zM32,15c2.07906,0 3.38736,0.45846 4,0.70117v2.29883h-1c-1.15082,0 -2.07304,0.0952 -2.84961,0.59961c-0.77656,0.50441 -1.15039,1.46188 -1.15039,2.40039v4h4.7793l-0.59961,3h-4.17969v16h-4v-16h-3v-3h3v-4c0,-1.83333 0.46409,-3.35355 1.28125,-4.375c0.81716,-1.02145 1.96875,-1.625 3.71875,-1.625z"></path></g></g></svg>

<svg xmlns="http://www.w3.org/2000/svg" width="50" height="50" viewBox="0 0 256 256">
  <path fill="#fff" stroke-miterlimit="10" d="M9 4C6.25 4 4 6.25 4 9v32c0 2.75 2.25 5 5 5h16.832a1 1 0 0 0 .326 0h5.674a1 1 0 0 0 .326 0H41c2.75 0 5-2.25 5-5V9c0-2.75-2.25-5-5-5zm0 2h32c1.668 0 3 1.332 3 3v32c0 1.668-1.332 3-3 3h-8V30h3.82l1.4-7H33v-2c0-.557.053-.601.24-.723.187-.121.766-.277 1.76-.277h3v-5.63l-.57-.272S35.133 13 32 13c-2.25 0-4.098.896-5.281 2.375S25 18.833 25 21v2h-3v7h3v14H9c-1.668 0-3-1.332-3-3V9c0-1.668 1.332-3 3-3m23 9c2.08 0 3.387.458 4 .701V18h-1c-1.15 0-2.073.095-2.85.6-.776.504-1.15 1.461-1.15 2.4v4h4.78l-.6 3H31v16h-4V28h-3v-3h3v-4c0-1.833.464-3.354 1.281-4.375S30.25 15 32 15" font-family="none" font-size="none" font-weight="none" style="mix-blend-mode:normal" text-anchor="none" transform="scale(5.12)"/>
</svg>
